packages/sources/icons/src/vitamix/shopping-cart-line.svg

<svg width="16" height="16" viewBox="0 0 16 16" fill="none" xmlns="http://www.w3.org/2000/svg">
<path fill-rule="evenodd" clip-rule="evenodd" d="M2.66667 1.33333C2.97094 1.33333 3.23304 1.53859 3.31041 1.8265L3.32581 1.90013L3.64401 3.998L14 3.99788C14.3997 3.99788 14.7031 4.34478 14.6635 4.73112L14.6509 4.80883L13.3205 10.8106C13.2585 11.0904 13.0259 11.2962 12.7468 11.3286L12.6696 11.333H3.97982C3.67556 11.333 3.41345 11.1278 3.33609 10.8398L3.32068 10.7662L2.094 2.66667H0.666672V1.33333H2.66667ZM4.00001 14C4.00001 14.7364 4.59696 15.3333 5.33334 15.3333C6.06972 15.3333 6.66667 14.7364 6.66667 14C6.66667 13.2636 6.06972 12.6667 5.33334 12.6667C4.59696 12.6667 4.00001 13.2636 4.00001 14ZM10 14C10 14.7364 10.597 15.3333 11.3333 15.3333C12.0697 15.3333 12.6667 14.7364 12.6667 14C12.6667 13.2636 12.0697 12.6667 11.3333 12.6667C10.597 12.6667 10 13.2636 10 14ZM3.84599 5.33134H13.17L12.1353 10H4.55332L3.84599 5.33134Z" fill="#001018"/>
</svg>

<svg width="16" height="16" fill="none" xmlns="http://www.w3.org/2000/svg"><path fill-rule="evenodd" clip-rule="evenodd" d="M2.667 1.333c.304 0 .566.206.643.494l.016.073.318 2.098H14c.4 0 .703.347.664.733l-.013.078-1.33 6.002a.667.667 0 0 1-.574.518l-.077.004H3.98a.667.667 0 0 1-.644-.493l-.015-.074-1.227-8.1H.667V1.334h2zM4 14a1.333 1.333 0 1 0 2.667 0A1.333 1.333 0 0 0 4 14zm6 0a1.333 1.333 0 1 0 2.667 0A1.333 1.333 0 0 0 10 14zM3.846 5.331h9.324L12.135 10H4.553l-.707-4.669z" fill="#001018"/></svg>
